X:153
T:Quadrille. CJF.153
R:Quadrille
S:C.J.Fox MS, 1829/33, Beverley,E.Yorks.
N:The notes marked ** were cd in the MS, not c2d2. – PJH.
B:Kidson Coll.Mitchell Lib.M1805
O:England
A:East Yorkshire
Z:vmp.P J Headford 2000 & 2008
M:2/4
L:1/16
Q:1/4=60
K:A
cd|f<ec2 e<dB2|d<cA2 A4|\
(GABc) (dc)(fe)|e>dc2 “**”c2d2|!
f<ec2 e<dc2|d<cA2 A4|(GABc) dBAG|B4 A2h||!
GA|B<GE2 A<F^D2|EFGA Bc^de|fe^dc BAGF|G6 F2|!
B<GE2 e<^dB2 b<ge2|c<BB<A A<FF<E|^D4″ D.C.”E2|]

